icons/plexis/48/alchemy.svg

<svg viewBox="0 0 48 48" xmlns="http://www.w3.org/2000/svg" xmlns:xlink="http://www.w3.org/1999/xlink">
  <linearGradient id="a" gradientTransform="matrix(0 -1 1 0 -.0000015 47.999998)" gradientUnits="userSpaceOnUse" x1="1" x2="47">
    <stop offset="0" stop-color="#e4e4e4"/>
    <stop offset="1" stop-color="#eee"/>
  </linearGradient>
  <path d="m47 24c0 22.703-.297 23-23 23-22.703 0-23-.297-23-23 0-22.703.297-23 23-23 22.703 0 23 .297 23 23z" fill="url(#a)"/>
  <path d="m18.664 10c1.332 1.34 1.324 2.406 1.324 4.02v3.336c-4.66 1.563-7.992 5.77-7.992 10.734 0 4.258 2.469 7.973 6.117 9.926h11.77c3.648-1.953 6.117-5.668 6.117-9.926 0-4.953-3.344-9.156-8-10.734v-3.336c0-1.605-.008-2.676 1.324-4.02h-10.664m.008 0" opacity=".1" transform="translate(1 1)"/>
  <path d="m18.664 10c1.332 1.34 1.324 2.406 1.324 4.02v3.336c-4.66 1.563-7.992 5.77-7.992 10.734 0 4.258 2.469 7.973 6.117 9.926h11.77c3.648-1.953 6.117-5.668 6.117-9.926 0-4.953-3.344-9.156-8-10.734v-3.336c0-1.605-.008-2.676 1.324-4.02h-10.664m.008 0" fill="#fc6"/>
  <path d="m13.25 23c-.801 1.523-1.25 3.242-1.25 5.063 0 4.254 2.477 7.984 6.125 9.938h11.75c3.648-1.953 6.125-5.684 6.125-9.938 0-1.82-.449-3.539-1.25-5.063m-21.5 0" fill="#f93"/>
  <path d="m27 35.5c0 .277-.223.5-.5.5-.277 0-.5-.227-.5-.5 0-.277.223-.5.5-.5.277 0 .5.223.5.5m0 0" fill="#f9f9f9"/>
  <path d="m25.5 33.25c0 .414-.336.75-.75.75-.414 0-.75-.336-.75-.75 0-.414.336-.75.75-.75.414 0 .75.336.75.75m0 0" fill="#f9f9f9"/>
  <path d="m27 30c0 .551-.449 1-1 1-.551 0-1-.449-1-1 0-.555.449-1 1-1 .551 0 1 .449 1 1m0 0" fill="#f9f9f9"/>
  <path d="m27 22.5c0 .828-.672 1.5-1.5 1.5-.828 0-1.5-.676-1.5-1.5 0-.828.672-1.5 1.5-1.5.828 0 1.5.672 1.5 1.5m0 0" fill="#f9f9f9"/>
  <path d="m24.5 26.75c0 .691-.559 1.25-1.25 1.25-.691 0-1.25-.563-1.25-1.25 0-.691.559-1.25 1.25-1.25.691 0 1.25.563 1.25 1.25m0 0" fill="#f9f9f9"/>
</svg>

<svg xmlns="http://www.w3.org/2000/svg" viewBox="0 0 48 48">
 <defs>
  <linearGradient id="linearGradient3764" x1="1" x2="47" gradientUnits="userSpaceOnUse" gradientTransform="matrix(0,-1,1,0,-1.5e-6,47.999998)">
   <stop style="stop-color:#e4e4e4;stop-opacity:1"/>
   <stop offset="1" style="stop-color:#eee;stop-opacity:1"/>
  </linearGradient>
 </defs>
 <g>
  
  
  
 </g>
 <g>
  <path d="m 47,24 C 47,46.703 46.703,47 24,47 1.297,47 1,46.703 1,24 1,1.297 1.297,1 24,1 46.703,1 47,1.297 47,24 z" style="fill:url(#linearGradient3764);fill-opacity:1"/>
 </g>
 <g>
  <g>
   <g transform="translate(1,1)">
    <g style="opacity:0.1">
     <!-- color: #eeeeee -->
     <g>
      <path d="m 18.664 10 c 1.332 1.34 1.324 2.406 1.324 4.02 l 0 3.336 c -4.66 1.563 -7.992 5.77 -7.992 10.734 c 0 4.258 2.469 7.973 6.117 9.926 l 11.77 0 c 3.648 -1.953 6.117 -5.668 6.117 -9.926 c 0 -4.953 -3.344 -9.156 -8 -10.734 l 0 -3.336 c 0 -1.605 -0.008 -2.676 1.324 -4.02 l -10.664 0 m 0.008 0" style="fill:#000;fill-opacity:1;stroke:none;fill-rule:nonzero"/>
     </g>
    </g>
   </g>
  </g>
 </g>
 <g>
  <g>
   <!-- color: #eeeeee -->
   <g>
    <path d="m 18.664,10 c 1.332,1.34 1.324,2.406 1.324,4.02 l 0,3.336 c -4.66,1.563 -7.992,5.77 -7.992,10.734 0,4.258 2.469,7.973 6.117,9.926 l 11.77,0 C 33.531,36.063 36,32.348 36,28.09 36,23.137 32.656,18.934 28,17.356 L 28,14.02 C 28,12.415 27.992,11.344 29.324,10 L 18.66,10 m 0.008,0" style="fill:#fc6;fill-opacity:1;stroke:none;fill-rule:nonzero"/>
    <path d="M 13.25,23 C 12.449,24.523 12,26.242 12,28.063 c 0,4.254 2.477,7.984 6.125,9.938 l 11.75,0 C 33.523,36.048 36,32.317 36,28.063 36,26.243 35.551,24.524 34.75,23 m -21.5,0" style="fill:#f93;fill-opacity:1;stroke:none;fill-rule:nonzero"/>
    <path d="M 27,35.5 C 27,35.777 26.777,36 26.5,36 26.223,36 26,35.773 26,35.5 26,35.223 26.223,35 26.5,35 c 0.277,0 0.5,0.223 0.5,0.5 m 0,0" style="fill:#f9f9f9;fill-opacity:1;stroke:none;fill-rule:nonzero"/>
    <path d="M 25.5,33.25 C 25.5,33.664 25.164,34 24.75,34 24.336,34 24,33.664 24,33.25 c 0,-0.414 0.336,-0.75 0.75,-0.75 0.414,0 0.75,0.336 0.75,0.75 m 0,0" style="fill:#f9f9f9;fill-opacity:1;stroke:none;fill-rule:nonzero"/>
    <path d="m 27 30 c 0 0.551 -0.449 1 -1 1 -0.551 0 -1 -0.449 -1 -1 0 -0.555 0.449 -1 1 -1 0.551 0 1 0.449 1 1 m 0 0" style="fill:#f9f9f9;fill-opacity:1;stroke:none;fill-rule:nonzero"/>
    <path d="M 27,22.5 C 27,23.328 26.328,24 25.5,24 24.672,24 24,23.324 24,22.5 24,21.672 24.672,21 25.5,21 c 0.828,0 1.5,0.672 1.5,1.5 m 0,0" style="fill:#f9f9f9;fill-opacity:1;stroke:none;fill-rule:nonzero"/>
    <path d="M 24.5,26.75 C 24.5,27.441 23.941,28 23.25,28 22.559,28 22,27.437 22,26.75 c 0,-0.691 0.559,-1.25 1.25,-1.25 0.691,0 1.25,0.563 1.25,1.25 m 0,0" style="fill:#f9f9f9;fill-opacity:1;stroke:none;fill-rule:nonzero"/>
   </g>
  </g>
 </g>
 <g>
  
 </g>
</svg>
